X:5020
T:Fantastic Reel, The
R:reel
D:Fiddlesticks: Irish Traditional Music From Donegal
Z:id:hn-reel-251
M:C|
K:D
~D3E FEDF|Adcd BAFA|~B3c dBAF|G2FE DB,A,B,|
~D3E FEDF|Adcd BAFA|(3Bcd ec dBAF|1 G2FE D2A,2:|2 G2FE D2zd||
|:efed cA~A2|f2ef g2ag|fded cA~A2|BdAG FD~D2|
efed cA~A2|fdef g2fg|afge fded|1 cABc d2zd:|2 cABc d2A,2||
